packages/core/src/svgs/brush.svg

<svg width="24" height="24" viewBox="0 0 24 24" fill="none" xmlns="http://www.w3.org/2000/svg">
<g clip-path="url(#clip0_31_7461)">
<path d="M0 0H24V24H0V0Z" fill="#F0F3FA"/>
<path d="M18.8571 12.0002C18.8571 13.8188 18.1347 15.563 16.8487 16.8489C15.5627 18.1349 13.8186 18.8574 12 18.8574C10.1813 18.8574 8.4372 18.1349 7.15123 16.8489C5.86527 15.563 5.14282 13.8188 5.14282 12.0002C5.14282 10.1816 5.86527 8.43744 7.15123 7.15148C8.4372 5.86551 10.1813 5.14307 12 5.14307C13.8186 5.14307 15.5627 5.86551 16.8487 7.15148C18.1347 8.43744 18.8571 10.1816 18.8571 12.0002Z" fill="url(#paint0_linear_31_7461)" fill-opacity="0.3"/>
<path fill-rule="evenodd" clip-rule="evenodd" d="M12 18.3774C12.8516 18.3994 13.6991 18.2508 14.4923 17.9401C15.2856 17.6294 16.0087 17.1631 16.6188 16.5685C17.229 15.974 17.7139 15.2632 18.0451 14.4783C18.3762 13.6933 18.5468 12.85 18.5468 11.9981C18.5468 11.1461 18.3762 10.3028 18.0451 9.51785C17.7139 8.73289 17.229 8.02218 16.6188 7.42763C16.0087 6.83307 15.2856 6.36671 14.4923 6.05605C13.6991 5.74538 12.8516 5.5967 12 5.61878C10.3367 5.6619 8.75604 6.35292 7.59488 7.54456C6.43373 8.73621 5.7839 10.3342 5.7839 11.9981C5.7839 13.6619 6.43373 15.2599 7.59488 16.4516C8.75604 17.6432 10.3367 18.3342 12 18.3774ZM12 18.8574C13.8186 18.8574 15.5627 18.1349 16.8487 16.8489C18.1347 15.563 18.8571 13.8188 18.8571 12.0002C18.8571 10.1816 18.1347 8.43744 16.8487 7.15148C15.5627 5.86551 13.8186 5.14307 12 5.14307C10.1813 5.14307 8.4372 5.86551 7.15123 7.15148C5.86527 8.43744 5.14282 10.1816 5.14282 12.0002C5.14282 13.8188 5.86527 15.563 7.15123 16.8489C8.4372 18.1349 10.1813 18.8574 12 18.8574Z" fill="url(#paint1_linear_31_7461)"/>
<path d="M8.16431 15.2959L10.9029 12.8145C11.1515 12.943 11.5972 13.243 11.6143 13.663L9.19288 16.333C8.85002 16.3245 8.16431 16.1016 8.16431 15.2959ZM9.06859 15.6173C9.09898 15.6216 9.12994 15.6194 9.15939 15.6107C9.18883 15.602 9.21607 15.5871 9.23925 15.567C9.26244 15.5469 9.28103 15.522 9.29377 15.4941C9.30651 15.4662 9.31311 15.4359 9.31311 15.4052C9.31311 15.3745 9.30651 15.3441 9.29377 15.3162C9.28103 15.2883 9.26244 15.2634 9.23925 15.2433C9.21607 15.2232 9.18883 15.2083 9.15939 15.1996C9.12994 15.1909 9.09898 15.1887 9.06859 15.193C9.01176 15.193 8.95726 15.2156 8.91707 15.2558C8.87688 15.296 8.85431 15.3505 8.85431 15.4073C8.85431 15.4641 8.87688 15.5186 8.91707 15.5588C8.95726 15.599 9.01176 15.6216 9.06859 15.6216V15.6173Z" fill="url(#paint2_linear_31_7461)"/>
<path d="M11.7042 12.5527L14.5199 13.7527L15.1199 13.1184L15.017 12.9899L15.2999 12.767L15.5913 13.1442L14.6099 14.1727L11.7942 12.9813L11.3485 13.4656L11.0828 13.2213L11.7042 12.5527Z" fill="#737071"/>
<path d="M11.4172 7.72705C10.56 7.85134 9.99432 8.75562 9.8186 9.18419L14.0957 13.4999C14.4939 13.5065 14.8794 13.3605 15.1735 13.092C15.4675 12.8235 15.6477 12.4527 15.6772 12.0556L11.4172 7.72705Z" fill="#B38C68"/>
<path d="M10.5386 8.51557C10.3586 8.58414 10.1872 9.20128 10.1272 9.497L13.9586 13.3627C14.6743 13.307 14.8629 12.9513 14.8715 12.7799C15.0601 12.737 15.5015 12.257 15.6943 12.0213L11.4858 7.74414C11.3401 7.81271 11.0572 7.98843 11.0572 8.13843C11.0572 8.327 10.7615 8.42986 10.5386 8.51557Z" fill="url(#paint3_linear_31_7461)"/>
<path d="M13.9414 5.14735L11.4514 7.79592L15.6514 12.0259L18.8228 8.84592V5.14307H13.9414V5.14735Z" fill="url(#paint4_linear_31_7461)"/>
</g>
<defs>
<linearGradient id="paint0_linear_31_7461" x1="7.58139" y1="6.79735" x2="16.0757" y2="17.1945" gradientUnits="userSpaceOnUse">
<stop stop-color="#99817E"/>
<stop offset="0.25" stop-color="#948680"/>
<stop offset="0.51" stop-color="#7C988B"/>
<stop offset="0.77" stop-color="#7B90A1"/>
<stop offset="1" stop-color="#868A9F"/>
</linearGradient>
<linearGradient id="paint1_linear_31_7461" x1="7.68425" y1="6.48021" x2="15.8143" y2="17.5116" gradientUnits="userSpaceOnUse">
<stop stop-color="#FF413F"/>
<stop offset="0.16" stop-color="#FD9819"/>
<stop offset="0.36" stop-color="#FCC008"/>
<stop offset="0.51" stop-color="#45C391"/>
<stop offset="0.7" stop-color="#D69B70"/>
<stop offset="0.86" stop-color="#A767E5"/>
<stop offset="1" stop-color="#6A8AEF"/>
</linearGradient>
<linearGradient id="paint2_linear_31_7461" x1="9.16716" y1="14.1473" x2="10.3972" y2="15.4116" gradientUnits="userSpaceOnUse">
<stop stop-color="#D02612"/>
<stop offset="0.48" stop-color="#EB4F2E"/>
<stop offset="1" stop-color="#841F0C"/>
</linearGradient>
<linearGradient id="paint3_linear_31_7461" x1="10.8301" y1="8.64414" x2="14.9443" y2="12.6813" gradientUnits="userSpaceOnUse">
<stop stop-color="#0EBEFF"/>
<stop offset="0.28" stop-color="#46CB85"/>
<stop offset="0.51" stop-color="#FA4B4C"/>
<stop offset="0.69" stop-color="#F9CD07"/>
<stop offset="1" stop-color="#AE63E4"/>
</linearGradient>
<linearGradient id="paint4_linear_31_7461" x1="12.8486" y1="6.27021" x2="17.0057" y2="10.5431" gradientUnits="userSpaceOnUse">
<stop stop-color="#79DBFF"/>
<stop offset="0.29" stop-color="#77DC9B"/>
<stop offset="0.55" stop-color="#EB6F69"/>
<stop offset="0.73" stop-color="#FEE074"/>
<stop offset="1" stop-color="#C58FEC"/>
</linearGradient>
<clipPath id="clip0_31_7461">
<rect width="24" height="24" fill="white"/>
</clipPath>
</defs>
</svg>

<svg xmlns="http://www.w3.org/2000/svg" width="24" height="24" fill="none" viewBox="0 0 24 24"><g clip-path="url(#a)"><path fill="#F0F3FA" d="M0 0h24v24H0z"/><path fill="url(#b)" fill-opacity=".3" d="M18.857 12a6.857 6.857 0 1 1-13.714 0 6.857 6.857 0 0 1 13.714 0"/><path fill="url(#c)" fill-rule="evenodd" d="M12 18.377a6.382 6.382 0 1 0 .33-12.759 6.382 6.382 0 0 0-.33 12.76m0 .48a6.857 6.857 0 1 0 0-13.714 6.857 6.857 0 0 0 0 13.714" clip-rule="evenodd"/><path fill="url(#d)" d="m8.164 15.296 2.739-2.481c.248.128.694.428.711.848l-2.421 2.67c-.343-.008-1.029-.231-1.029-1.037m.905.321a.214.214 0 1 0 0-.424.214.214 0 0 0 0 .429z"/><path fill="#737071" d="m11.704 12.553 2.816 1.2.6-.635-.103-.128.283-.223.291.377-.981 1.029-2.816-1.192-.446.485-.265-.245z"/><path fill="#B38C68" d="M11.417 7.727c-.857.124-1.423 1.029-1.598 1.457l4.277 4.316a1.56 1.56 0 0 0 1.581-1.444z"/><path fill="url(#e)" d="M10.539 8.516c-.18.068-.352.685-.412.981l3.832 3.866c.715-.056.904-.412.912-.583.19-.043.63-.523.823-.759l-4.208-4.277c-.146.069-.429.244-.429.394 0 .189-.296.292-.518.378"/><path fill="url(#f)" d="m13.941 5.147-2.49 2.649 4.2 4.23 3.172-3.18V5.143H13.94z"/></g><defs><linearGradient id="b" x1="7.581" x2="16.076" y1="6.797" y2="17.195" gradientUnits="userSpaceOnUse"><stop stop-color="#99817E"/><stop offset=".25" stop-color="#948680"/><stop offset=".51" stop-color="#7C988B"/><stop offset=".77" stop-color="#7B90A1"/><stop offset="1" stop-color="#868A9F"/></linearGradient><linearGradient id="c" x1="7.684" x2="15.814" y1="6.48" y2="17.512" gradientUnits="userSpaceOnUse"><stop stop-color="#FF413F"/><stop offset=".16" stop-color="#FD9819"/><stop offset=".36" stop-color="#FCC008"/><stop offset=".51" stop-color="#45C391"/><stop offset=".7" stop-color="#D69B70"/><stop offset=".86" stop-color="#A767E5"/><stop offset="1" stop-color="#6A8AEF"/></linearGradient><linearGradient id="d" x1="9.167" x2="10.397" y1="14.147" y2="15.412" gradientUnits="userSpaceOnUse"><stop stop-color="#D02612"/><stop offset=".48" stop-color="#EB4F2E"/><stop offset="1" stop-color="#841F0C"/></linearGradient><linearGradient id="e" x1="10.83" x2="14.944" y1="8.644" y2="12.681" gradientUnits="userSpaceOnUse"><stop stop-color="#0EBEFF"/><stop offset=".28" stop-color="#46CB85"/><stop offset=".51" stop-color="#FA4B4C"/><stop offset=".69" stop-color="#F9CD07"/><stop offset="1" stop-color="#AE63E4"/></linearGradient><linearGradient id="f" x1="12.849" x2="17.006" y1="6.27" y2="10.543" gradientUnits="userSpaceOnUse"><stop stop-color="#79DBFF"/><stop offset=".29" stop-color="#77DC9B"/><stop offset=".55" stop-color="#EB6F69"/><stop offset=".73" stop-color="#FEE074"/><stop offset="1" stop-color="#C58FEC"/></linearGradient><clipPath id="a"><path fill="#fff" d="M0 0h24v24H0z"/></clipPath></defs></svg>
